X: 38215
T: Spy Czar, The
R: hornpipe
M: 4/4
K: Aminor
A|EAcA (3ABc d2|(3 EAc (3ecA EAB^G|EAce agfe|(3gfe dc BA^GF|
EAcA (3ABc d2|(3 EAc (3ecA EAB^G|(3DFA (3dAF EB,^GB,|A,2AE A3A|
(3E2A2c2 (3B2^G2F2|(3E2A2c2 (3B2^G2F2|EAce agfe|(3gfe dc BA^GF|
(3EAc (3eae fd- dE/E/|(3EAc (3eac' d'b- bD/D/|(3DFA (3dAF EB,^GB,|A,2e||

